assets/Clamp/Flat/clamp_flat.svg

<svg width="32" height="32" viewBox="0 0 32 32" fill="none" xmlns="http://www.w3.org/2000/svg">
<path d="M23.42 29.07H16.58C16.3 29.07 16.08 28.85 16.08 28.57V28.45C16.08 28.18 16.3 27.95 16.58 27.95H23.42C23.69 27.95 23.92 28.17 23.92 28.45V28.57C23.92 28.85 23.69 29.07 23.42 29.07Z" fill="#636363"/>
<path d="M20.01 30C19.09 30 18.34 29.25 18.34 28.33V15.02H21.68V28.33C21.68 29.25 20.93 30 20.01 30Z" fill="#9B9B9B"/>
<path d="M14.44 22C12.3 22 10.56 20.33 10.56 18.27V8.74C10.56 6.67 12.3 5 14.44 5H17.5099L20.3959 5.73L23.04 5C22.8 3.16 21.18 2 19.21 2H9.88C7.74 2 6 3.67 6 5.73V21.26C6 23.33 7.74 25 9.88 25H19.2C21.18 25 21.8 23.84 22.03 22H14.44Z" fill="#533566"/>
<path d="M22.07 7H18.33C17.8 7 17.36 6.57 17.36 6.03V5H23.04V6.03C23.04 6.57 22.61 7 22.07 7Z" fill="#321B41"/>
<path d="M21.92 27.03H18.48C17.86 27.03 17.36 26.53 17.36 25.91V21.12C17.36 20.5 17.86 20 18.48 20H21.92C22.54 20 23.04 20.5 23.04 21.12V25.91C23.04 26.53 22.54 27.03 21.92 27.03Z" fill="#433B6B"/>
<path d="M21.9286 16H18.0714C17.4821 16 17 15.55 17 15C17 14.45 17.4821 14 18.0714 14H21.9286C22.5179 14 23 14.45 23 15C23 15.55 22.5179 16 21.9286 16Z" fill="#D3D3D3"/>
<path d="M16.08 29.63C16.6985 29.63 17.2 29.1286 17.2 28.51C17.2 27.8915 16.6985 27.39 16.08 27.39C15.4614 27.39 14.96 27.8915 14.96 28.51C14.96 29.1286 15.4614 29.63 16.08 29.63Z" fill="#D3D3D3"/>
<path d="M25.0401 28.51C25.0401 29.1286 24.5386 29.63 23.92 29.63C23.3015 29.63 22.8 29.1286 22.8 28.51C22.8 27.8915 23.3015 27.39 23.92 27.39C24.5386 27.39 25.0401 27.8915 25.0401 28.51Z" fill="#D3D3D3"/>
</svg>

<svg xmlns="http://www.w3.org/2000/svg" width="32" height="32" fill="none"><path fill="#636363" d="M23.42 29.07h-6.84c-.28 0-.5-.22-.5-.5v-.12c0-.27.22-.5.5-.5h6.84c.27 0 .5.22.5.5v.12c0 .28-.23.5-.5.5Z"/><path fill="#9B9B9B" d="M20.01 30c-.92 0-1.67-.75-1.67-1.67V15.02h3.34v13.31c0 .92-.75 1.67-1.67 1.67Z"/><path fill="#533566" d="M14.44 22c-2.14 0-3.88-1.67-3.88-3.73V8.74C10.56 6.67 12.3 5 14.44 5h3.07l2.886.73L23.04 5c-.24-1.84-1.86-3-3.83-3H9.88C7.74 2 6 3.67 6 5.73v15.53C6 23.33 7.74 25 9.88 25h9.32c1.98 0 2.6-1.16 2.83-3h-7.59Z"/><path fill="#321B41" d="M22.07 7h-3.74a.97.97 0 0 1-.97-.97V5h5.68v1.03c0 .54-.43.97-.97.97Z"/><path fill="#433B6B" d="M21.92 27.03h-3.44c-.62 0-1.12-.5-1.12-1.12v-4.79c0-.62.5-1.12 1.12-1.12h3.44c.62 0 1.12.5 1.12 1.12v4.79c0 .62-.5 1.12-1.12 1.12Z"/><path fill="#D3D3D3" d="M21.929 16H18.07C17.482 16 17 15.55 17 15s.482-1 1.071-1h3.858c.589 0 1.071.45 1.071 1s-.482 1-1.071 1ZM16.08 29.63a1.12 1.12 0 1 0 0-2.24 1.12 1.12 0 0 0 0 2.24ZM25.04 28.51a1.12 1.12 0 1 1-2.24 0 1.12 1.12 0 0 1 2.24 0Z"/></svg>
